src/images/home/logo.svg

<svg width="712" height="157" viewBox="0 0 712 157" fill="none" xmlns="http://www.w3.org/2000/svg">
<g opacity="0.03">
<path d="M326.315 3.36413C322.074 2.46699 317.61 1.79413 313.146 1.79413C304.664 1.79413 282.122 1.79413 279.443 1.79413V27.1384C288.371 27.1384 297.076 27.1384 306.004 27.1384C314.039 27.1384 317.61 30.727 317.833 38.577C317.833 39.2498 317.833 43.7356 317.833 49.3427H345.51V28.4841C345.51 26.4656 345.286 24.6713 345.063 22.6527C343.054 12.5598 336.805 5.60699 326.315 3.36413ZM317.833 119.544C317.61 127.618 314.039 130.983 306.004 130.983C292.612 130.983 279.22 130.983 265.828 130.983C252.436 130.983 239.044 130.983 225.876 130.983C217.841 130.983 214.269 127.394 214.046 119.544C214.046 118.871 214.046 59.2113 214.046 48.6698C214.046 43.5113 214.046 39.2498 214.046 38.577C214.269 30.5027 217.841 27.1384 225.876 27.1384C234.134 27.1384 242.169 27.1384 250.427 27.1384V1.79413C248.195 1.79413 226.992 1.79413 218.51 1.79413C214.046 1.79413 209.582 2.46699 205.342 3.36413C194.851 5.60699 188.602 12.5598 186.816 22.877C186.593 24.8956 186.37 26.6898 186.37 28.7084V47.3241V49.3427V129.413C186.37 131.431 186.593 133.226 186.816 135.244C188.825 145.561 194.851 152.514 205.342 154.757C209.582 155.654 214.046 156.327 218.51 156.327C226.769 156.327 235.25 156.327 243.732 156.327C251.097 156.327 258.463 156.327 265.828 156.327C273.194 156.327 280.559 156.327 287.925 156.327C296.406 156.327 304.664 156.327 313.146 156.327C317.61 156.327 322.074 155.654 326.315 154.757C336.805 152.514 343.054 145.561 344.84 135.244C345.286 133.226 345.286 131.431 345.286 129.413V108.554H317.61C317.833 114.61 317.833 119.096 317.833 119.544ZM503.533 65.4913H428.985V90.1627H503.533V65.4913ZM0.446289 156.327H27.6764V2.01841H0.446289V156.327ZM166.728 154.084C149.989 129.861 133.472 105.638 116.732 81.6398C115.616 79.8456 115.393 78.7241 116.509 76.9298C132.356 52.9313 148.203 28.7084 163.827 4.48556C164.273 3.8127 164.72 2.91556 165.389 2.01841C154.676 2.01841 144.409 2.01841 134.365 2.01841C133.695 2.01841 133.026 2.69127 132.579 3.13984C131.017 5.3827 129.454 7.84984 127.892 10.0927C117.625 25.5684 107.358 41.2684 97.0908 56.7441C93.2964 62.5756 87.9397 65.4913 80.7974 65.267C80.5742 65.267 52.4513 65.267 52.4513 65.267V90.387C54.6833 90.387 60.2632 90.387 63.388 90.387C67.8519 90.387 76.3334 90.387 80.7974 90.387C86.8237 90.387 91.7341 92.6298 95.5284 97.5641C96.6444 98.9098 97.5372 100.256 98.6532 101.826C110.929 119.544 122.982 137.038 135.034 154.533C135.704 155.43 136.82 156.327 137.936 156.327C147.98 156.551 158.024 156.327 168.514 156.327C167.621 155.43 167.175 154.757 166.728 154.084ZM401.755 27.1384H524.96V2.2427H374.079V156.327H524.96V131.207H401.755V27.1384ZM709.768 22.877C707.759 12.5598 701.733 5.60699 691.242 3.36413C687.002 2.46699 682.538 1.79413 678.074 1.79413C637.229 1.79413 596.16 1.79413 555.315 1.79413H552.86V156.103H580.313V27.1384C580.983 27.1384 581.652 26.9141 582.099 26.9141C611.784 26.9141 641.246 26.9141 670.932 26.9141C678.967 26.9141 682.538 30.5027 682.761 38.3527C682.761 40.147 682.984 74.9113 682.984 76.4813C682.984 78.2756 682.984 80.0698 682.761 81.8641C682.538 89.9384 678.967 93.3027 670.932 93.3027C649.951 93.3027 628.97 93.3027 607.99 93.3027V118.647C631.426 118.647 654.861 118.647 678.297 118.647C682.761 118.647 687.225 118.198 691.466 117.301C701.956 115.058 708.206 108.106 709.991 97.7884C710.214 95.7698 710.437 93.9756 710.437 91.957V70.8741V46.427V28.4841C710.214 26.6898 709.991 24.8956 709.768 22.877Z" fill="#1A1919"/>
</g>
</svg>

<svg width="712" height="157" fill="none" xmlns="http://www.w3.org/2000/svg"><path d="M326.315 3.364c-4.241-.897-8.705-1.57-13.169-1.57h-33.703v25.344h26.561c8.035 0 11.606 3.589 11.829 11.439v10.766h27.677V28.484c0-2.018-.224-3.813-.447-5.831-2.009-10.093-8.258-17.046-18.748-19.289zm-8.482 116.18c-.223 8.074-3.794 11.439-11.829 11.439h-80.128c-8.035 0-11.607-3.589-11.83-11.439V38.577c.223-8.074 3.795-11.439 11.83-11.439h24.551V1.794H218.51c-4.464 0-8.928.673-13.168 1.57-10.491 2.243-16.74 9.196-18.526 19.513-.223 2.019-.446 3.813-.446 5.831v100.705c0 2.018.223 3.813.446 5.831 2.009 10.317 8.035 17.27 18.526 19.513 4.24.897 8.704 1.57 13.168 1.57h94.636c4.464 0 8.928-.673 13.169-1.57 10.49-2.243 16.739-9.196 18.525-19.513.446-2.018.446-3.813.446-5.831v-20.859H317.61a314.84 314.84 0 01.223 10.99zm185.7-54.053h-74.548v24.672h74.548V65.49zM.446 156.327h27.23V2.018H.446v154.309zm166.282-2.243c-16.739-24.223-33.256-48.446-49.996-72.444-1.116-1.794-1.339-2.916-.223-4.71 15.847-23.999 31.694-48.222 47.318-72.444.446-.673.893-1.57 1.562-2.468h-31.024c-.67 0-1.339.673-1.786 1.122-1.562 2.243-3.125 4.71-4.687 6.953-10.267 15.475-20.534 31.175-30.801 46.651-3.795 5.832-9.151 8.747-16.294 8.523H52.451v25.12h28.347c6.026 0 10.936 2.243 14.73 7.177 1.116 1.346 2.01 2.692 3.125 4.262 12.276 17.718 24.329 35.212 36.381 52.707.67.897 1.786 1.794 2.902 1.794 10.044.224 20.088 0 30.578 0-.893-.897-1.339-1.57-1.786-2.243zM401.755 27.138H524.96V2.243H374.079v154.084H524.96v-25.12H401.755V27.138zm308.013-4.261c-2.009-10.317-8.035-17.27-18.526-19.513-4.24-.897-8.704-1.57-13.168-1.57H552.86v154.309h27.453V27.138c.67 0 1.339-.224 1.786-.224h88.833c8.035 0 11.606 3.589 11.829 11.439 0 1.794.223 36.558.223 38.128 0 1.795 0 3.589-.223 5.383-.223 8.074-3.794 11.439-11.829 11.439H607.99v25.344h70.307c4.464 0 8.928-.449 13.169-1.346 10.49-2.243 16.74-9.195 18.525-19.513.223-2.018.446-3.812.446-5.831V28.484c-.223-1.794-.446-3.588-.669-5.607z" fill="#1A1919" opacity=".03"/></svg>
